X:1
T:Title
%%score ( 1 2 ) ( 3 4 )
L:1/8
Q:1/4=105
M:6/8
K:F
V:1 treble nm="Grand Piano, Soprano"
V:2 treble 
V:3 bass nm="Choir Pad, Chantilly, B. F. Butts, 1902"
V:4 bass 
V:1
 C [FA]2 [FA] [CG]2 | [CF] [CF]2 [CE] [CE]2 | [EB] [EB]2 [CE] [CF]2 | [EG] [FA]2- [FA]2- [FA]/ z/ | %4
w: By~Benjamin~Franklin~Butts,~Sr.,~1902 * * *||||
 [Fc] [Fc]2 [Fc] [FB]2 | [_EA] [DG]2 [DG] [DB]2 | [B,D] [A,C]2 [CF] [CF]2 | %7
w: |||
 [CE] [CF]2- [CF]2- [CF]/ z/ | [Fc] [Ec]2 [EG] [EG]2 | [Ec] [Fc]2 [FA] [FA]2 | %10
w: |||
 [FA] [EG]2 [EG] [FA]2 | z c2- c2- c/ z/ | [Ec] [Fc]2 [FA] [Af]2 | [ce] [ce]2 [Bd] [Bd]2 | %14
w: ||||
 [_Ad] [=Ac]2 [FA] [FA]2 | [CG] [CF]2- [CF]3- | [CF]3 z3 |] %17
w: |||
V:2
 x6 | x6 | x6 | x6 | x6 | x6 | x6 | x6 | x6 | x6 | x6 | [F=B] E2 F G2 | x6 | x6 | x6 | x6 | x6 |] %17
V:3
 [F,A,] [F,C]2 [F,C] [F,B,]2 | [F,A,] [C,A,]2 [C,G,] [C,G,]2 | [C,C] [C,C]2 [B,C] [A,C]2 | %3
 [G,C] [F,C]2- [F,C]2- [F,C]/ z/ | [F,A,] [F,A,]2 [F,A,] [F,D]2 | [F,C] [B,,B,]2 [B,,B,] [B,,F,]2 | %6
 [B,,F,] [C,F,]2 [C,A,] [C,A,]2 | [C,B,] [F,A,]2- [F,A,]2- [F,A,]/ z/ | %8
 [F,A,] [C,G,]2 [C,C] [C,C]2 | [C,B,] [F,A,]2 [F,C] [F,C]2 | [F,C] [G,C]2 [G,C] [G,=B,]2 | %11
 [G,D]CG, A, B,2 | [C,B,] [F,A,]2 [F,C] [F,C]2 | [A,F] [B,F]2 [B,F] [B,F]2 | %14
 [=B,F] [CE]2[K:bass] [C,C] [C,C]2 | [C,B,] [F,A,]2- [F,A,]3- | [F,A,]3 z3 |] %17
V:4
 x6 | x6 | x6 | x6 | x6 | x6 | x6 | x6 | x6 | x6 | x6 | z C,2- C,2- C,/ z/ | x6 | x6 | %14
 x3[K:bass] x3 | x6 | x6 |] %17

